X: 8685
T: Crossing To Ireland
R: waltz
M: 3/4
K: Edorian
E/F/|:"Em"GE E/D/ B, E>F|G E/F/ G B>B A/G/|"D"FD DA, DD|FDD "Bm"A>A G/F/|
"Em"GE E/D/ B, E>F|G E/F/ G B2 A|"G"G>A B/c/ "D"dcB|1 "B7"AGF "Em" E2 E/F/:|2 "B7"AGF "Em" E>e e/f/||
"Em"ge eB e>B|GE E E>b a/g/|"D"fd dA d>A|FD DD>a g/f/|
"Em"ge eB e>B|GE g "Bm"f2 e|"G"G>A B/c/ "D"dcB|"B7"AGF "Em"E2 e/f/|
"Em"ge eB ee|EGB e/f/ g/b/ a/g/|"D"fdd A d>A|DFA "Bm"d/e/ f/g/ a/f/|
"Em"g>f e "B7"f>e ^d|"Em"e>d B "D"A>G F|"G"G>A B/c/ "D"d cB|"B7"AGF "Em"E3||

